X: 988
T: Turkey in the Straw
C:Monroe Style, Arr. Skip Gorman
B: jims roots
M:2/4
L:1/8
Q: 1/4=100
K:G
V:1 
FG |:"G"G2G2GEDB, |A,B,B,D DGGA | Bddg- gedB |"D"AF2A AcBA |
"G"GDE=F EDB,A, |G,B,B,D DGGA | Bddg- gedB |[1 "D"AGGG "G"G2FG :|[2 "D"AGGG "G"G2G2 ||
|: "G"Bddd dedc | Bddd dedA | "C"cdef gage | cdef g2gg |
   "G"gage dg2b | gedB "D"AGGA | "G"{_B}=BAGB AGED | "D"GEDB, "G"G,2G,2 |]
% abcbook-tune_id 6298c2970461a229bf9f521d


% abcbook-boost 0
% abcbook-tablature 
% abcbook-transpose 
% abcbook-lastupdated 1654178456379
% abcbook-soundfonts 
% abcbook-repeats 1


